X: 209
T:Frost is All Over jig
S:Douglas Cole, Ir-Trad, 7/97
R:jig
Z:Douglas Cole - St.Paul Slow Session
M:6/8
K:D
| def edc|dAF GFE|DFA DFA|Bcd ecA|
  def edc|dAF GFE|DFA DFA|B2 c d3:|
|: fef afd| gfg bag| fga agf | gfg efg|
  fga agf| gab bag| fgf ede| fdc d3 :|
